X:1
T:Title
%%score 1 { 2 | 3 }
L:1/8
Q:1/4=99
M:4/4
K:G
V:1 treble nm="Grand Piano, Soprano"
V:2 bass nm="Choir Pad, Bass"
V:3 bass 
V:1
 [B,D][B,D] [B,G]2 [B,G][B,G][B,G][DB]- | [DB][DA] [EG]>[EA] [EG][CE] [B,D]2 | %2
w: By~Charles~Hutchinson~Gabriel * * * * * *||
 [B,D][B,D][DG][DG] [DG][DG] [GB]2 | [Gd]2 [FA]6 | [GB][Ac] [Bd]2 [Gd][Ge][Gd][GB]- | %5
w: |||
 [GB][DA] [EG]>[EA] [EG][CE] [B,D]2 | [B,D][B,D][CE][DF] [EG][EA][DB][Gd]- | %7
w: ||
 [Gd][Ac] [GB]2 [DA]2 [DG]2 | [DB][Dc] [Gd]2 [Gd]2 [Ge]2 | [Gd][GB] [Gd]2 [GB]2 [DA][DG]- | %10
w: |||
 [DG]2 D[DG]- [DG]3/2 z/ [DG][GB]- | [GB]2 [Gd]>[Ge] [Gd][GB] [FA]2 | %12
w: ||
 [GB][Ac] [Bd]2 [Gd][Ge][Gd][GB]- | [GB][DA] [EG]>[EA] [EG][CE] [B,D]2 | %14
w: ||
 [B,D][B,D][CE][DF] [EG][EA][DB][Gd]- | [Gd][Ac] [GB]2 [DA]2 [DG]2- | [DG]6 z2 |] %17
w: |||
V:2
 G,G, D,2 D,D,D,G,- | G,G, G,>C CG, G,2 | G,G,B,B, B,B,[K:treble] D2 | D2 D6 | DD D2 B,CB,D- | %5
 DB, C>C C[K:bass]G, G,2 | G,G,G,G, G,G,G,B,- | B,[K:treble]E D2 C2 B,2 | G,[K:bass]A, B,2 B,2 C2 | %9
 B,D B,2 D2 CB,- | B,2 B,B,- B,3/2 z/ B,[K:treble]D- | D2 B,>C B,D D2 | DD D2 B,CB,D- | %13
 DB, C>C C[K:bass]G, G,2 | G,G,G,G, G,G,G,B,- | B,[K:treble]E D2 C2 B,2- | B,6 z2 |] %17
V:3
 G,,G,, G,,2 G,,G,,G,,G,,- | G,,B,, C,>C, C,C, G,,2 | G,,G,,G,G, G,G, G,2 | B,,2 D,6 | %4
 G,G, G,2 G,G,G,G,- | G,G, C,>C, C,C, G,,2 | G,,G,,C,C, C,C,D,D,- | D,D, D,2 D,2 G,,2 | %8
 z G, G,2 G,2 G,2 | G,G, G,2 G,2 G,G,- | G,2 G,G,- G,3/2 z/ G,G,- | G,2 G,>G, G,G, D,2 | %12
 G,G, G,2 G,G,G,G,- | G,G, C,>C, C,C, G,,2 | G,,G,,C,C, C,C,D,D,- | D,D, D,2 D,2 G,,2- | G,,6 z2 |] %17

